X: 2
T: The Humours Of Carrigaholt
R: reel
M: 4/4
L: 1/8
K: Dmaj
fe|d=cAF ~G2AG|FDD2 FGAB|=cAGF ~G2FG|Add^c d2:|~f2df ~f2gf|edcd efge|fd~d2 f2gf|edcd ~e3e|fded ~f2gf|edcd ef~g2|agfa gfec|Addcd2||


Tune 1730	Setting 1730

